X:1
T:Domine, quid multiplicati sunt
T:Claude Goudimel  (1514-1572)
T:The Bible, Psalm 3
T:Domine, quid multiplicati sunt
T:Copyright (c) 2003 by Jonathan Goodliffe, distributed under terms of the CPDL Licence (http://www.cpdl.org). Edition may be freely distributed, duplicated, performed or recorded.
T:4 part motet
T:Copyright (c) 2003 by Jonathan Goodliffe, distributed under terms of the CPDL Licence (http://www.cpdl.org). Edition may be freely distributed, duplicated, performed or recorded.
T:Copyright (c) 2003 by Jonathan Goodliffe, distributed under terms of the CPDL Licence (http://www.cpdl.org). Edition may be freely distributed, duplicated, performed or recorded.
T:Copyright (c) 2003 by Jonathan Goodliffe, distributed under terms of the CPDL Licence (http://www.cpdl.org). Edition may be freely distributed, duplicated, performed or recorded.
T:Copyright (c) 2003 by Jonathan Goodliffe, distributed under terms of the CPDL Licence (http://www.cpdl.org). Edition may be freely distributed, duplicated, performed or recorded.
T:Copyright (c) 2003 by Jonathan Goodliffe, distributed under terms of the CPDL Licence (http://www.cpdl.org). Edition may be freely distributed, duplicated, performed or recorded.
T:Copyright (c) 2003 by Jonathan Goodliffe, distributed under terms of the CPDL Licence (http://www.cpdl.org). Edition may be freely distributed, duplicated, performed or recorded.
T:Copyright (c) 2003 by Jonathan Goodliffe, distributed under terms of the CPDL Licence (http://www.cpdl.org). Edition may be freely distributed, duplicated, performed or recorded.
T:Copyright (c) 2003 by Jonathan Goodliffe, distributed under terms of the CPDL Licence (http://www.cpdl.org). Edition may be freely distributed, duplicated, performed or recorded.
C:Claude Goudimel  (1514-1572)
Z:The Bible, Psalm 3
Z:Copyright (c) 2003 by Jonathan Goodliffe, distributed under terms of the CPDL Licence (http://www.cpdl.org).
Z:Edition may be freely distributed, duplicated, performed or recorded.
%%score [ 1 2 3 4 ]
L:1/8
M:2/2
K:F
V:1 treble nm="SOPRANO" snm="S."
V:2 treble nm="ALTO" snm="A."
V:3 treble-8 transpose=-12 nm="TENOR" snm="T."
V:4 bass nm="BASS" snm="B."
V:1
 A12 A4 | A8 F4 D4 | F6 G2 A4 A4 | D4 B4 B4 A4 | G8 F4 d4 | d6 c2 B4 A4 | G2 F2 B6 A2 G4- | %7
w: Do- mi-|ne, quid mul-|ti- pli- ca- ti|sunt qui tri- bu-|lant me, qui|tri- bu- lant _|_ _ _ _ _|
w: |||||||
 G4 ^F4 G8- | G8 z8 | d12 d4 | d8 c4 A4 | B6 c2 d4 d4 | G4 G4 B4 B4 | A16 | A8 z4 D4 | E4 F4 G8 | %16
w: * * me?||Do- mi-|ne, quid mul-|ti- pli- ca- ti|||* qui|tri- bu- lant|
w: |||||sunt qui tri- bu-|lant|me, *||
 F2 G2 A2 F2 G2 A2 B4 | A4 G8 ^F4 | G16- | G8 z4 D4- | D4 D4 G4 G4 | F4 D4 F4 F4 | %22
w: _ _ _ _ _ _ _||me?|_ Mul-|* ti in- sur-|gunt ad- ver- sum|
w: ||||||
 G2 A2 B2 G2 A4 B4- | B2 A2 A8 G4 | A8 z4 A4- | A4 A4 d4 d4 | c4 c4 d8 | B8 A8 | z4 G4 G4 G4 | %29
w: me _ _ _ _ _|_ _ _ _|* Mul-|* ti in- sur-|gunt ad- ver-|sum me.|Mul- ti di-|
w: |||||||
 ^F4 F4 G8 | B8 A4 B4- | B2 A2 G2 F2 G8 | F4 F4 F4 E4 | F8 D4 d4- | d4 c4 B4 A4- | A2 G2 G4 A8 | %36
w: cunt a- ni-|mae me- *|* * * * ae,|a- ni- mae _|me- * *|||
w: |||||||
 F8 z4 A4 | B4 G4 F4 A4 | G2 F2 G2 A2 B4 A4 | A4 G4 F8 | E8 z4 A4 | B4 G4 F4 D4 | F6 F2 _E4 D4- | %43
w: ae. Non|est sa- lus ip-|si- * * * * in|de- o e-|jus, non|est sa- lus in|de- o e- *|
w: |||||||
 D4 C4 D8- | D8 z4 A4 | A4 A4 B8- | B4 G4 G4 G4 | c4 c4 B8 | A4 G8 F2 E2 | F8 z4 G4- | G4 ^F4 B8 | %51
w: * * jus.|* Tu|au- tem Do-|* mi- ne sus-|cep- tor me-|* * * us|es glo-|* ri- a|
w: ||||||||
 A8 F8- | F8 d6 c2 | B4 A4 G8- | G8 ^F8 | z4 A8 A4 | B8 A4 A4 | (G4 F4) E8 | D8 z8 | z16 | z8 A8- | %61
w: me- a,||||Et ex-|al- tans ca-|put _ me-|um,|||
w: |* glo- ri-|a me- *|* a.||||||et|
 A4 A4 B8 | A8 G8- | G4 F4 _E4 D4- | D4 C4 D8- | D8 z8 | z16 | z16 | z4 A4 A4 A4 | D4 A4 d8- | %70
w: |||||||Vo- ce me-|a ad Do-|
w: _ ex- al-|tans ca-|* put me- *|* * um.|_|||||
 d4 c4 B4 A4 | B8 A8 | z4 d4 _e8- | e4 d4 c4 B4 | A16 | A8 z4 A4 | A4 A4 G8 | B8 A4 A4 | c4 c4 B8 | %79
w: * mi- num cla-|ma- vi,|ad Do-|* mi- num cla-|ma-|vi. Et|ex- au- di-|vit me, *||
w: |||||||* * et|ex- au- di-|
 d8 c6 BA | B8 A8 | z8 z4 D4 | E4 F4 G8- | G4 F4 E8 | D4 G4 A8 | A8 F4 F4 | G4 A4 B6 A2 | %87
w: ||de|mon- te sanc-|* to Su-|o, sanc- to|Su- o, de|mon- te sanc- *|
w: vit me _ _|_ _|||||||
 G2 F2 E4 D8 | z8 z4 G4 | A8 B8 | c8 B4 A4- | A2 G2 G8 ^F4 | G16 |] %93
w: to _ su- o,|de|mon- te|sanc- to- *|* * Su- *|o.|
w: ||||||
V:2
 z16 | z8 D8- | D4 D4 D8 | B,4 G,4 B,8- | B,4 C4 D4 D4 | A,4 F4 F6 E2 | D2 C2 B,2 A,2 G,4 B,4 | %7
w: |Do-|* mi- ne,|quid mul- ti-|* pli- ca- ti|sunt qui tri- bu-|lant _ _ _ _ _|
w: |||||||
 A,8 G,4 D4 | D4 D4 G8 | ^F2 E2 D2 C2 B,2 A,2 B,2 C2 | D2 G,2 G8 ^F4 | G8 z4 G,4 | B,4 C4 D6 C2 | %13
w: me, qui _|tri- bu- lant|_ _ _ _ _ _ _ _||me, *||
w: ||||* qui|tri- bu- lant _|
 D2 E2 F4 E8 | z16 | z4 D4 D4 ^C4 | D8 B,2 C2 D2 CD | _E8 D8- | D8 z4 G,4- | G,4 G,4 B,4 B,4 | %20
w: |||||* Mul-|* ti in- sur-|
w: _ _ _ me?||qui tri- bu-|lant _ _ _ _ _|_ me?|_||
 A,4 D8 C4 | D4 F6 _E2 D2 C2 | B,2 C2 D2 B,2 C4 D4 | D,4 D8 D4 | F4 F4 C4 F4- | F4 E4 D2 C2 D2 E2 | %26
w: gunt ad- ver-|sum _ _ _ _|_ _ _ _ _ _|me * *|||
w: |||* Mul- ti|in- sur- gunt ad-|* ver- * * * *|
 F4 E4 D8 | z4 D4 D4 D4 | B,4 G,4 B,4 C4 | D8 G,8 | z4 D4 F4 D4 | B,12 C4 | D4 D4 B,8 | C8 z4 D4 | %34
w: |Mul- ti di-|cunt a ni- mae|me- ae.||||* a-|
w: * sum me.||||Mul- ti di-|cunt a-|ni- mae me-|ae, *|
 F6 E2 D4 C4 | B,8 A,8 | z4 D4 F4 C4 | D4 B,8 A,4 | B,4 G,4 F,4 F4- | F4 E8 D4- | D4 ^C4 D8 | %41
w: ni- mae me- *|* ae.|Non est sa-|lus ip- si|in de- o e-||* * jus,|
w: |||||||
 z4 D4 D4 F4 | D4 D4 C4 F,4 | G,4 G,4 B,8 | A,8 z4 F4 | F4 F4 D8- | D4 E4 E4 E4 | G12 F4 | %48
w: |||* Tu|au- tem *|||
w: non est sa-|lus ip- * in|de- o e-|jus. *|* * Do-|* mi- ne sus-|cep- tor|
 _E8 D6 C2 | B,2 A,2 D8 _E4 | D8 D8- | D8 z4 D4- | D4 C4 D2 C2 D2 E2 | F4 F4 D8 | z4 D8 D4 | %55
w: |||* glo-|* ri- a _ _ _|_ me- a.|Et ex-|
w: me- * *||us es|_||||
 _E4 D8 C4 | D4 B,2 C2 D2 =E2 F2 D2 | E4 D8 ^C4 | D16 | z4 D4 D2 E2 F2 D2 | E4 F4 D8 | %61
w: al- tans ca-|put _ _ _ _ me- *||um,|ca- put _ _ _|me- * *|
w: ||||||
 C8 B,2 A,2 B,2 C2 | D8 z4 D4 | D6 C2 B,4 A,4- | A,4 G,4 A,8 | B,8 z4 G4 | G4 G4 D8 | z4 D4 G8- | %68
w: |um, *|||* Vo-|ce me- a|ad Do-|
w: |* ca-|put me- * *||um. *|||
 G4 F4 E4 D4 | F8 F8- | F8 z8 | z4 D4 D4 D4 | C4 B,4 C6 C2 | D4 F4 G8 | E16 | z4 D4 D4 D4 | %76
w: * mi- num cla-|ma- vi,|_|||||Et ex- au-|
w: |||vo- ce me-|a ad Do- mi-|num cla ma-|vi.||
 C8 _E8 | D4 D4 F4 F4 | _E8 G8 | F4 D4 E4 F4 | G12 F4 | E8 D8 | z8 z4 G,4 | A,4 B,4 C8 | %84
w: di- vit|me, * * *||* de mon- te|sanc- to|Su- o,|de|mon- te sanc-|
w: |* et ex- au-|di- vit|me * * *|||||
 B,4 G,4 C4 F4- | F4 E4 D8 | z4 C4 D8 | E8 F8 | G4 G,4 A,4 B,4 | C12 B,4 | A,8 G,4 F4- | %91
w: * to Su- *|* * o,|de mon-|te sanc-|to, de mon- te|sanc- to|Su- o, sanc-|
w: |||||||
 F2 E2 D2 C2 D8 | B,16 |] %93
w: * * * to Su-|o.|
w: ||
V:3
 z16 | z16 | z16 | z16 | z16 | z16 | d12 d4 | d8 B4 G4 | B12 c4 | d4 d4 G4 G4 | B4 B4 A8 | %11
w: ||||||Do- mi-|ne, quid mul-|ti- pli-|ca- ti * *|tri- bu- lant|
w: |||||||||* * sunt qui||
 G2 A2 B2 A2 G2 F2 _E2 D2 | _E8 D2 =E2 F2 G2 | A2 D2 d8 ^c4 | d4 f6 e2 d2 c2 | B4 A8 G4 | %16
w: _ _ _ _ _ _ _ _|||me, qui tri- bu- *|* lant _|
w: |||||
 A8 z4 G4 | c4 c4 A6 GA | B6 A2 G2 F2 _E2 D2 | _E8 D8 | z16 | z4 D8 D4 | G4 G4 F4 D4 | A8 B8 | %24
w: me? qui|tri- bu- lant _ _|_ _ _ _ _ _|* me?||Mul- ti|in- sur- gunt ad-|ver- sum|
w: ||||||||
 A6 G2 A2 B2 c4 | F4 A8 G4 | A8 z4 G4 | G4 G4 ^F4 D4 | G2 F2 _E2 D2 E4 E4 | D4 d4 d4 d4 | %30
w: me _ _ _ _|_ _ _|* Mul-|ti di- cunt a-|ni- * * * mae me-|ae, * * *|
w: |||||* a- ni- mae|
 B4 G4 c4 B4 | G16 | A4 F4 G4 B4- | B4 A4 B8 | F8 z8 | z4 d4 f4 c4 | d4 B4 A4 A4 | %37
w: ||a- ni- mae _|_ _ me-|ae.|Non est sa-|lus ip- si in|
w: me- * * *|ae,||||||
 G2 A2 B2 c2 d2 _e2 d4- | d4 c4 d4 D4 | F4 C4 D4 D4 | A6 A2 F4 A4 | G8 z4 A4- | A4 B4 G4 B4- | %43
w: de- o _ _ _ _ _|_ e- jus, *|||||
w: |* * * in|de- o e- *||jus, in|_ de- o e-|
 B2 A2 G8 ^F2 E2 | ^F8 z4 d4 | d4 d4 B8- | B4 c4 c4 c4 | _e12 d4 | c4 B4 A4 A4 | d4 d4 B4 c4 | %50
w: |* Tu|au- tem *|||me- us es sus-|cep- tor me- us|
w: |jus. *|* * Do-|* mi- ne sus-|cep- tor|||
 A8 z4 G4- | G4 F4 B4 B4- | B4 A4 f6 e2 | d4 c4 B8- | B4 A2 G2 A6 B2 | c4 d4 A8 | z16 | z4 A8 A4 | %58
w: es glo-|* ri- a me|_ a, * *|||||Et ex-|
w: ||* * glo- ri-|a me- *||* * a.|||
 B4 A8 ^F4 | G4 A4 B6 A2 | G4 F2 E2 F4 G4- | G4 ^F4 G8 | z4 A4 B4 B4 | A8 G4 F4 | _E8 D8 | %65
w: al- tans ca-|put me- um, *||||||
w: |* * * ca-|put me- * * *|* * um,|ca- put me-||* um.|
 z4 d4 d4 d4 | G4 d4 f8 | e4 d8 ^c4 | d8 A8 | z4 A4 B4 B4 | A4 A4 d6 c2 | B4 G4 A8 | G2 F2 B8 A4 | %73
w: Vo- ce me-|a ad Do-|mi- num cla-|ma- vi,|||* cla- ma-|* * vi, cla-|
w: ||||vo- ce me-|a ad Do- mi-|num * *||
 B4 d4 _e4 d4- | d4 ^c2 B2 c8 | d8 z4 D4 | F4 F4 C8 | G8 F4 A4 | A4 A4 G8 | B8 A8 | z4 G4 A4 B4 | %81
w: ma- * * *||vi. Et|ex- au- di-|vit me, *|||de mon- te|
w: ||||* * et|ex- au- di-|vit me||
 c12 B4 | A8 G8 | z4 F4 G4 A4 | B8 A4 d4- | d4 ^c4 d4 D4 | E4 F8 G4- | G4 A8 B4- | %88
w: sanc- to|Su- o,|de mon- te|sanc- to Su-|* * o, de|mon- te sanc-|* to Su-|
w: |||||||
 B2 A2 G2 F2 _E2 D2 G4- | G4 ^F4 G8 | z4 A4 B4 d4 | c4 B4 A8 | G16 |] %93
w: |* * o,|de mon- te|sanc- to Su-|o.|
w: |||||
V:4
 z16 | z16 | z16 | z16 | z8 D,8- | D,4 D,4 D,8 | B,,4 G,,4 B,,6 C,2 | D,4 D,4 G,,4 G,4 | %8
w: ||||Do-|* mi- ne,|||
w: ||||||quid mul- ti- pli-|ca- ti sunt qui|
 G,6 F,2 _E,8 | D,8 z8 | z16 | z4 G,8 G,4 | G,8 F,4 D,4 | F,6 G,2 A,4 A,4 | D,4 D,4 B,6 A,2 | %15
w: |||||||
w: tri- bu- lant|me?||Do- mi-|ne, quid mul-|ti- pli- ca- ti|sunt qui- tri- bu-|
 G,4 F,4 E,8 | D,4 D,4 G,4 G,4 | C,8 D,8 | z4 G,,8 G,,4 | C,4 C,4 B,,4 G,,4 | D,8 _E,8 | D,8 z8 | %22
w: |||Mul- ti|in- sur- gunt ad-|ver- sum|me.|
w: lant _ me,|qui tri- bu- lant|_ me?|||||
 z8 z4 D,4- | D,4 D,4 G,4 G,4 | F,4 D,4 F,6 E,2 | D,4 C,4 B,,8 | A,,8 z8 | z16 | z16 | z8 z4 G,4 | %30
w: ||||me.|||Mul-|
w: Mul-|* ti in- sur-|gunt ad- ver- *|* * sum|||||
 G,4 G,4 F,4 B,,4 | _E,8 E,4 E,4 | D,4 D,4 G,4 G,4 | F,8 B,,8 | z16 | z16 | z16 | z4 G,4 B,4 F,4 | %38
w: ti di- cunt a-|ni- mae me-|ae, a- ni- mae|me- ae.||||Non est sa-|
w: ||||||||
 G,4 _E,4 D,8 | z16 | z4 A,,4 B,,4 F,,4 | G,,4 G,,4 D,8- | D,4 B,,4 C,4 D,4 | _E,8 D,8- | %44
w: lus ip- si,||||||
w: ||non est sa-|lus ip- si|_ in de- o|e- jus.|
 D,8 z4 D,4 | D,4 D,4 G,8- | G,4 C,4 C,8 | z4 C,4 _E,4 B,,4 | C,8 D,8 | z4 D,4 G,4 C,4 | D,8 G,,8 | %51
w: * Tu|au- tem *||sus- cep- tor|me- us,|sus- cep- tor|me- us|
w: _|* * Do-|* mi- ne|||||
 z4 D,8 B,,4 | F,4 F,4 B,,4 B,4- | B,4 F,4 G,8- | G,8 D,8 | z16 | z16 | z16 | z4 D,8 D,4 | %59
w: glo- ri-|a me a, *||||||Et ex-|
w: |* * * me-||* a.|||||
 _E,4 D,8 B,,4 | C,4 D,8 C,2 B,,2 | A,,8 G,,4 G,4- | G,4 ^F,4 G,8 | D,8 z8 | z4 G,8 ^F,4 | %65
w: al- tans ca-|put me- um _|_ _ ca-|* put me-|um.|Vo- ce|
w: ||||||
 G,8 D,4 G,4 | B,12 A,4 | G,4 F,4 E,8 | D,8 z4 D,4 | D,4 D,4 B,,4 D,4 | F,6 F,2 G,4 D,4 | %71
w: me- a ad|Do- mi-|num cla- ma|vi, *|||
w: |||* Vo-|ce me- a ad|Do- mi- num cla-|
 G,12 F,4 | _E,4 D,4 C,8 | B,,8 z4 G,4 | A,16 | D,16 | z16 | z4 G,,4 D,4 D,4 | C,8 _E,8 | D,8 z8 | %80
w: ||* cla-|ma-|vi.||Et ex- au-|di- vit|me|
w: ma- vi,|cla ma- *|vi, *|||||||
 z8 z4 D,4 | E,4 F,4 G,8- | G,4 F,4 E,8 | D,8 C,8 | D,4 E,4 F,4 D,4 | A,8 D,8 | z8 B,,8 | C,8 D,8 | %88
w: de|mon- te sanc-|* to Su-|o, *|||de|mon- te|
w: |||* de|mon- te sanc- to|Su- o,|||
 _E,6 D,2 C,4 B,,4 | A,,8 G,,4 G,4- | G,4 ^F,4 G,4 D,4 | F,4 G,4 D,8 | G,,16 |] %93
w: sanc- * to _|su- o, *||||
w: |* * de|_ mon- te sanc-|* to Su-|o.|

